!! 00000] TT[WS
!!!OTL: Ci pian
!!!ARE: Asia, China, Shanxi Heshun
!! Ethnic Group: Han
!! WI, 193 (2)
!!!SCT: J0230
!!!YEM: Copyright 1995, estate of Helmut Schaffrath.
**kern
*ICvox
*Ivox
*M2/4
*k[f#c#]
*D:
{4b
4b
=1
8r
8dd
8b
8a
=2
8a
8f#
[4a
=3
4a]
8f#
8a
=4
4b
4dd
=5
8r
4a
8f#
=6
8a
8f#
[4e
=7
4e]}
{4b
=8
8b
8a
8b
8cc#
=9
8b
8b
8a
8f#
=10
2a
=11
8f#
8a
4b
=12
8b
8cc#
8b
8a
=13
8g
8f#
8e
8d
=14
2e}
=15
{8f#
8e
4d
=16
2e
=17
4.a
8dd
=18
8b
8a
8f#
8e
=19
2d}
=20
{4.B
8d
=21
4.e
8a
=22
8d
8e
8cc#
8b
=23
4a
4d
=24
8b
8a
8g
8f#
=25
4.a
8b
=26
2a}
==
!!!AGN: Xiaodiao, Fengsuge
!!!ONB: ESAC (Essen Associative Code) Database: CHINA
!!!AMT: simple duple
!!!AIN: vox
!!!EED: Helmut Schaffrath
!!!EEV: 1.0
*-
!!!ONB: Tied note syntax fixed by Craig Sapp, 2004/05/03/
